!!!COM:	Japart, Jean
!!!CDT:	~1450//-~1507//
!!!OTL:	Amours fait moult tant / Il est de bonne heure n&eacute; / Tant que nostre argent
!!!AGN:	Song; Chanson
!!!SCT:	Bus3064
!!!SCA:	Bus3064
!!!ONB: Also Bus3064
!!!voices:	4
**kern	**kern	**kern	**kern
*staff4	*staff3	*staff2	*staff1
*Ivox	*Ivox	*Ivox	*Ivox
*I"Bassus	*I"Tenor	*I"Altus	*I"Discantus
*I'B	*I'T	*I'A	*I'D
*clefF4	*clefGv2	*clefGv2	*clefG2
*k[b-]	*k[b-]	*k[b-]	*k[b-]
*M2/1	*M2/1	*M2/1	*M2/1
*met(C|)	*met(C|)	*met(C|)	*met(C|)
=1-	=1-	=1-	=1-
0r	1G	0G	1.g
.	1G	.	.
.	.	.	2e
=2	=2	=2	=2
0r	1A	0D	1f
.	1A	.	1f
=3	=3	=3	=3
1GG	1B-	1G	1g
1GG	1B-	[1d	1g
=4	=4	=4	=4
1D	0A	0d]	1.a
1D	.	.	.
.	.	.	4g
.	.	.	4f
=5	=5	=5	=5
1E	0r	1G	1e
1E	.	[1c	[1g
=6	=6	=6	=6
0C	1G	0c]	2g]
.	.	.	4a
.	.	.	4b-
.	1G	.	[1cc
=7	=7	=7	=7
0r	1A	0F	2cc]
.	.	.	2b-
.	1A	.	[1a
=8	=8	=8	=8
0r	1B-	0G	2a]
.	.	.	4g
.	.	.	4f
.	1B-	.	1g
=9	=9	=9	=9
1D	1A	2D	0a
.	.	2.F	.
1D	[1d	.	.
.	.	4G	.
.	.	[2A	.
=10	=10	=10	=10
1F	1d]	4A]	1d
.	.	4D	.
.	.	1A	.
1E	1c#i	.	1e
.	.	2G	.
=11	=11	=11	=11
[0D	1d	0A	2.f
.	.	.	4g
.	2d	.	4a
.	.	.	4b-
.	4c	.	[2a
.	4B-	.	.
=12	=12	=12	=12
0D]	2A	1r	4a]
.	.	.	4g
.	2G	.	4f#i
.	.	.	4e
.	1A	1d	1f#i
=13	=13	=13	=13
0r	1G	1B-	0g
.	1r	2G	.
.	.	[2B-	.
=14	=14	=14	=14
0r	1G	4B-]	1r
.	.	4A	.
.	.	4G	.
.	.	4F	.
.	1G	1E	1g
=15	=15	=15	=15
0r	0A	1D	1f
.	.	2C	2e
.	.	[2D	[2f
=16	=16	=16	=16
0r	0B-	2D]	2f]
.	.	2.E	2.g
.	.	4D	4f
.	.	[2E	[2g
=17	=17	=17	=17
0r	1c	4E]	4g]
.	.	4C	4e
.	.	2.F	2.a
.	1c	.	.
.	.	4G	4g
.	.	2A	4f
.	.	.	4e
=18	=18	=18	=18
0r	1B-	2B-	1d
.	.	1G	.
.	1A	.	2.c
.	.	2F#i	.
.	.	.	4d
=19	=19	=19	=19
0r	2.G	1G	2e-i
.	.	.	1d
.	4F	.	.
.	2G	1r	.
.	[2A	.	[2c
=20	=20	=20	=20
0r	4A]	1r	4c]
.	4G	.	4B-
.	4F#i	.	4A
.	4E	.	4G
.	1F#i	1c	1A
=21	=21	=21	=21
0E-i	1G	2.B-	0G
.	.	4A	.
.	1r	2B-	.
.	.	[2c	.
=22	=22	=22	=22
0F	0r	4c]	1r
.	.	4B-	.
.	.	4A	.
.	.	4G	.
.	.	1A	1c
=23	=23	=23	=23
[0G	0r	1G	2B-
.	.	.	2c
.	.	[1B-	[1d
=24	=24	=24	=24
1G]	0r	1B-]	2d]
.	.	.	2G
1F	.	1A	[1d
=25	=25	=25	=25
1.D	0r	1.F	2d]
.	.	.	2e
.	.	.	[1f
2E	.	2G	.
=26	=26	=26	=26
1F	0r	1A	2f]
.	.	.	2e
1G	.	[1B-	[1d
=27	=27	=27	=27
0E	1G	2B-]	1d]
.	.	2A	.
.	1G	1G	1c#i
=28	=28	=28	=28
0D;	0A;	0F;	0d;
=29	=29	=29	=29
0r	0B-	0G	1r
.	.	.	1g
=30	=30	=30	=30
0r	0c	1C	1g
.	.	1F	1a
=31	=31	=31	=31
1D	1B-	2.BB-	0d
.	.	4C	.
1F	1A	1D	.
=32	=32	=32	=32
1E	1G	0r	1e
1D	2F	.	[1f
.	2G	.	.
=33	=33	=33	=33
1C	2.A	1r	2f]
.	.	.	2e
.	4B-	.	.
1BB-	[1G	1D	1d
=34	=34	=34	=34
0AA	1G]	1E	1.c
.	1F#i	1C	.
.	.	.	4B-
.	.	.	4A
=35	=35	=35	=35
1GG	1G	2D	1B-
.	.	2G	.
1AA	1r	2E	1c
.	.	2F	.
=36	=36	=36	=36
1BB-	1G	1D	1d
1C	1G	[1C	[1e
=37	=37	=37	=37
0AA	1A	2C]	2e]
.	.	2r	2.f
.	1A	1F	.
.	.	.	4g
.	.	.	[2a
=38	=38	=38	=38
0r	1B-	0G	2a]
.	.	.	4g
.	.	.	4f
.	1B-	.	1g
=39	=39	=39	=39
1.AA	0A	1E	1.a
.	.	[1A	.
2BB-	.	.	[2cc
=40	=40	=40	=40
1C	0r	2A]	2cc]
.	.	2G	4b-
.	.	.	4a
1C	.	1E	1g
=41	=41	=41	=41
[0D	0r	1D	2.f
.	.	.	4g
.	.	[1F	4a
.	.	.	4b-
.	.	.	[2a
=42	=42	=42	=42
1D]	0r	2F]	4a]
.	.	.	4g
.	.	2D	4f
.	.	.	4e
1BB-	.	[1G	1d
=43	=43	=43	=43
0GG	0r	2G]	1r
.	.	2A	.
.	.	[1B-	[1d
=44	=44	=44	=44
1BB-	1G	2B-]	1d]
.	.	2A	.
1C	1G	[1G	1e
=45	=45	=45	=45
0AA	1A	1G]	0c
.	1A	1F#i	.
=46	=46	=46	=46
0GG	1B-	1G	1d
.	1B-	1B-	2G
.	.	.	[2g
=47	=47	=47	=47
1r	1A	1c	4g]
.	.	.	4f
.	.	.	1a
1D	1A	1d	.
.	.	.	4g
.	.	.	4f
=48	=48	=48	=48
1C	1c	1e	2e
.	.	.	1.a
1F	1c	2c	.
.	.	[2f	.
=49	=49	=49	=49
1G	1B-	4f]	2d
.	.	4e	.
.	.	1d	2.b-
1E	1G	.	.
.	.	.	4a
.	.	2c	2g
=50	=50	=50	=50
0D	0A	[0dl	2f
.	.	.	1g
.	.	.	2f#i
=51	=51	=51	=51
0GGl	0Gl	0d]	0gl
==	==	==	==
*-	*-	*-	*-
!!!RDF**kern: l=long note in original notation
!!!RDF**kern: i=editorial accidental
!!!ENC:	Chris Gage 09-04-2013
!!!END:	2013/10/18/
!!!EED:	Jesse Rodin
!!!EEV:	2013/12/19/
!!!ONB:	Translated from MusicXML and edited on 2013/12/19/ by Craig Sapp
!!muse2ps: C^Japart(?)/Busnoys?/La Rue?^i2I150v85,85,85,150Q16
